X: 20201
Q: "With spirit."
M: 2/4
L: 1/16
K: G
|:\
g2g2 (agfe) | d2d2d2e2 | d2d2 (edcB) | A2A2A2f2 |\
g2g2 (agfe) | d2d2d2b2 | a2a2 (agfe) | d2d2 (dBc"^D.C."A) |]
e2e2 (edcB) | c2a2a2^c2 | d2d2 (d=cBA) | B2g2g2f2 |\
g2g2 (gfed) | e2e2d2d2 | c2A2B2G2 | d2d2 (dBc"^D.C."A) |]
e2G2G2e2 | d2G2G2e2 | d2f2f2f2 | g2g2g2f2 |\
e2G2G2e2 | d2G2G2e2 | d2f2f2f2 | g2g2f2f2 | g2g2g2g2 |\
g2z2 b2z2 | g6 z2 |]


